!! 00047] TT[KA
!! NN
!!!OTL: Zou xikou, 1)
!!!ARE: Asia, China, Shanxi, Shanbei
!! Ethnic Group: Han
!! I, 79, 1)
!!!SCT: C0029
!!!YEM: Copyright 1995, estate of Helmut Schaffrath.
**kern
*ICvox
*Ivox
*M2/4
*k[b-e-]
*B-:
{16dd
8cc
16dd
8cc
16b-
16g
=1
8b-
4.f}
=2
{16cc
8cc
16dd
8cc
16cc
16dd
=3
8.ff
16dd
4cc}
=4
{8cc
16cc
16dd
16gg
8ff
16ff
=5
16dd
16ff
16dd
16g
8b-
8dd}
=6
{16dd
8cc
16b-
16g
16f
16g
16b-
=7
2f}
==
!!!AGN: Xiaodiao. NannÅ liqing
!! +++BEREITS KODIERT?+++ volkstuemlich
!!    Letzte Note in Phrase 3 kann auch vom Text her als Auftakt zu Phrase
!!    4 verstanden werden. Eine Verzierung.
!!!ONB: ESAC (Essen Associative Code) Database: CHINA
!!!AMT: simple duple
!!!AIN: vox
!!!EED: Helmut Schaffrath
!!!EEV: 1.0
*-
